X:628
T: Sweeny's Buttermilk
Z: Piano Box Version by Martin Fleischmann
H: Created 2015-01-26 /  Last Modified 2015-05-25
R: reel
M: 4/4
L: 1/8
K: Bmin
|:FB B2 FB B2 |dcBc AE E2 |FB B2 ABce |afec Ba^ga |
f2 ec f2 ec |BBBc BAFE |FB B2 ABce |afec B2 BA :|
|:FBdc BF F2 |EAcB AE E2 |FBdc Bdfb |afec B3 c |
Bcde fB B2 |afec A!!Bce |f3a bf f2 |afec B2 BA :|

